X:071 
T:Gregory's Hornpipe 
B:CRE4.217 (Cornphiopa Ghreagora)
F:file ID: cre.4/071greg
S:Grier MS
Q:150
L:1/8
M:4/4
R:hornpipe
K:D
(3ABc|dA (3FAF D2 (3ABc|dA (3FAF E2 ef|gfed cdef|e2E/D/E E2 (3ABc|
dA (3FAF D2 (3ABc|dA (3FAF E2 ef|gfed cdec|d2 dc d2:|
|:FE|DEDF AFDF|Adce dcBA|Bdce dfed|cdef e2FE|
DEDF AFDF|Adce dcBA|gfed cdec|d2dc d2:|

%%%

